svgs/omnijaws.svg

<svg width="192" height="192" viewBox="0 0 192 192" fill="none" xmlns="http://www.w3.org/2000/svg">
<path d="M153.722 126.594C150.682 118.087 142.552 112 133 112C124.384 112 116.925 116.953 113.315 124.166C112.559 124.057 111.786 124 111 124C102.163 124 95 131.163 95 140C95 148.837 102.163 156 111 156H118.365M153.722 126.594C154.549 128.908 155 131.401 155 134C155 134.253 154.996 134.504 154.987 134.755C156.231 134.268 157.584 134 159 134C165.075 134 170 138.925 170 145C170 151.075 165.075 156 159 156H118.365M153.722 126.594L153.845 125.054C154.101 121.849 155.362 118.806 157.447 116.358L166.349 105.912C171.217 100.2 171.217 91.7997 166.349 86.088L157.447 75.6419C155.362 73.1943 154.101 70.1511 153.845 66.9455L152.753 53.2643C152.156 45.7837 146.216 39.8436 138.736 39.2466L125.054 38.1548C121.849 37.899 118.806 36.6385 116.358 34.5527L105.912 25.6506C100.2 20.7831 91.7997 20.7831 86.088 25.6506L75.6419 34.5527C73.1943 36.6385 70.1511 37.899 66.9455 38.1548L53.2643 39.2466C45.7837 39.8436 39.8436 45.7837 39.2466 53.2643L38.1548 66.9455C37.899 70.1511 36.6385 73.1943 34.5527 75.6419L25.6506 86.088C20.7831 91.7997 20.7831 100.2 25.6506 105.912L34.5527 116.358C36.6385 118.806 37.899 121.849 38.1548 125.054L39.2466 138.736C39.8436 146.216 45.7837 152.156 53.2643 152.753L66.9455 153.845C70.1511 154.101 73.1943 155.362 75.6419 157.447L86.088 166.349C91.7997 171.217 100.2 171.217 105.912 166.349L116.358 157.447C116.99 156.909 117.662 156.425 118.365 156" stroke="black" stroke-width="12" stroke-linejoin="round"/>
</svg>

<svg xmlns="http://www.w3.org/2000/svg" width="192" height="192" fill="none" viewBox="0 0 192 192"><path stroke="#000" stroke-linejoin="round" stroke-width="12" d="M153.722 126.594C150.682 118.087 142.552 112 133 112c-8.616 0-16.075 4.953-19.685 12.166A16 16 0 0 0 111 124c-8.837 0-16 7.163-16 16s7.163 16 16 16h7.365m35.357-29.406a22 22 0 0 1 1.265 8.161A11 11 0 0 1 159 134c6.075 0 11 4.925 11 11s-4.925 11-11 11h-40.635m35.357-29.406.123-1.54a15.3 15.3 0 0 1 3.602-8.696l8.902-10.446a15.28 15.28 0 0 0 0-19.824l-8.902-10.446a15.3 15.3 0 0 1-3.602-8.696l-1.092-13.682a15.28 15.28 0 0 0-14.017-14.017l-13.682-1.092a15.3 15.3 0 0 1-8.696-3.602l-10.446-8.902a15.28 15.28 0 0 0-19.824 0l-10.446 8.902a15.3 15.3 0 0 1-8.696 3.602l-13.682 1.092a15.28 15.28 0 0 0-14.017 14.017l-1.092 13.681a15.3 15.3 0 0 1-3.602 8.697L25.65 86.088a15.28 15.28 0 0 0 0 19.824l8.902 10.446a15.3 15.3 0 0 1 3.602 8.696l1.092 13.682a15.28 15.28 0 0 0 14.017 14.017l13.681 1.092a15.3 15.3 0 0 1 8.697 3.602l10.446 8.902a15.28 15.28 0 0 0 19.824 0l10.446-8.902a15.4 15.4 0 0 1 2.007-1.447"/></svg>
